X: 834
T: Rock That Cradle Lucy
B: jims roots
M:2/4
L:1/8
Q: 1/4=100
K:Dmaj
V:1 
%Z: Mix O'Lydian
%S: <a href="http://thesession.org/tunes/13400#setting23578" rel="nofollow">http://thesession.org/tunes/13400#setting23578</a>
%R: polka
=f | "D" f/a/f/e/ dB | "A" c(e e>)e | "G" g/a/g/e/ "A7" Bc | "D" d>e d=f |
"D" f/a/f/e/ dB | "A" c(e e2)| "G" g/a/g/e/ "A7" Bc | "D" d>d dB |]
"D" A[df] [d/f/]d/[d/f/]d/ | "D" A[df] [d/f/][d/f/][d/f/][d/f/] | "A" A[ce] [c/e/][c/e/][c/e/][c/e/] | "A" A[ce] [c/e/][c/e/][c/e/][c/e/]|
"D" A[df] [d/f/]d/[d/f/]d/ | "D" A[df] [d/f/][d/f/][d/f/][d/f/] | "G" g/f/e/c/ "A" Ac | "D" d>e d|]
% abcbook-tune_id 6298c2796f3e44629f174ee0


% abcbook-boost 0
% abcbook-tablature 
% abcbook-transpose 
% abcbook-lastupdated 1654178427019
% abcbook-soundfonts 
% abcbook-repeats 1


